navigator/static/images/icons/fees.svg

<?xml version="1.0" encoding="UTF-8" standalone="no"?>
<svg width="46px" height="45px" viewBox="0 0 46 45" version="1.1" xmlns="http://www.w3.org/2000/svg" xmlns:xlink="http://www.w3.org/1999/xlink">
    <!-- Generator: Sketch 39.1 (31720) - http://www.bohemiancoding.com/sketch -->
    <title>Page 1</title>
    <desc>Created with Sketch.</desc>
    <defs></defs>
    <g id="solution-3" stroke="none" stroke-width="1" fill="none" fill-rule="evenodd">
        <g id="details" transform="translate(-319.000000, -2305.000000)">
            <g id="Page-1" transform="translate(319.000000, 2305.000000)">
                <path d="M45.0736,30.5083 C45.0736,37.9913 39.1246,44.0573 31.7866,44.0573 C24.4486,44.0573 18.4996,37.9913 18.4996,30.5083 C18.4996,23.0253 24.4486,16.9593 31.7866,16.9593 C39.1246,16.9593 45.0736,23.0253 45.0736,30.5083" id="Fill-1" fill="#1E1348"></path>
                <path d="M45.0736,30.5083 C45.0736,37.9913 39.1246,44.0573 31.7866,44.0573 C24.4486,44.0573 18.4996,37.9913 18.4996,30.5083 C18.4996,23.0253 24.4486,16.9593 31.7866,16.9593 C39.1246,16.9593 45.0736,23.0253 45.0736,30.5083 L45.0736,30.5083 Z" id="Stroke-3" stroke="#1E1348"></path>
                <path d="M1.421,21.3181 L18.181,21.3181 C18.687,20.5411 19.264,19.8191 19.897,19.1471 L19.897,18.1201 C19.897,17.5321 19.262,17.0551 18.476,17.0551 L1.421,17.0551 C0.636,17.0551 0,17.5321 0,18.1201 L0,20.2521 C0,20.8401 0.636,21.3181 1.421,21.3181 M1.421,27.0031 L15.905,27.0031 C16.183,25.4931 16.68,24.0631 17.36,22.7391 L1.421,22.7391 C0.636,22.7391 0,23.2161 0,23.8051 L0,25.9371 C0,26.5261 0.636,27.0031 1.421,27.0031 M1.421,15.6331 L18.476,15.6331 C19.261,15.6331 19.897,15.1561 19.897,14.5671 L19.897,12.4351 C19.897,11.8471 19.261,11.3691 18.476,11.3691 L1.421,11.3691 C0.636,11.3691 0,11.8471 0,12.4351 L0,14.5671 C0,15.1561 0.636,15.6331 1.421,15.6331 M22.739,15.6331 L24.793,15.6331 C26.767,14.7281 28.954,14.2121 31.267,14.2121 C33.576,14.2121 35.766,14.7281 37.74,15.6331 L39.794,15.6331 C40.58,15.6331 41.215,15.1561 41.215,14.5671 L41.215,12.4351 C41.215,11.8471 40.58,11.3691 39.794,11.3691 L22.739,11.3691 C21.954,11.3691 21.318,11.8471 21.318,12.4351 L21.318,14.5671 C21.318,15.1561 21.954,15.6331 22.739,15.6331 M1.421,32.6881 L15.905,32.6881 C15.733,31.7641 15.634,30.8171 15.634,29.8451 C15.634,29.3651 15.661,28.8931 15.706,28.4241 L1.421,28.4241 C0.636,28.4241 0,28.9011 0,29.4901 L0,31.6211 C0,32.2111 0.636,32.6881 1.421,32.6881 M18.476,39.7941 L1.421,39.7941 C0.636,39.7941 0,40.2711 0,40.8591 L0,42.9911 C0,43.5801 0.636,44.0571 1.421,44.0571 L18.476,44.0571 C19.261,44.0571 19.897,43.5801 19.897,42.9911 L19.897,40.8591 C19.897,40.2711 19.261,39.7941 18.476,39.7941 M1.421,38.3731 L18.181,38.3731 C17.332,37.0731 16.674,35.6381 16.238,34.1091 L1.421,34.1091 C0.636,34.1091 0,34.5861 0,35.1751 L0,37.3061 C0,37.8951 0.636,38.3731 1.421,38.3731 M22.739,9.9481 L39.794,9.9481 C40.58,9.9481 41.215,9.4711 41.215,8.8821 L41.215,6.7511 C41.215,6.1621 40.58,5.6841 39.794,5.6841 L22.739,5.6841 C21.954,5.6841 21.318,6.1621 21.318,6.7511 L21.318,8.8821 C21.318,9.4711 21.954,9.9481 22.739,9.9481 M22.739,4.2631 L39.794,4.2631 C40.58,4.2631 41.215,3.7861 41.215,3.1971 L41.215,1.0651 C41.215,0.4771 40.58,0.0001 39.794,0.0001 L22.739,0.0001 C21.954,0.0001 21.318,0.4771 21.318,1.0651 L21.318,3.1971 C21.318,3.7861 21.954,4.2631 22.739,4.2631" id="Fill-5" fill="#1E1348"></path>
                <path d="M33.6335,41.5873 C33.3555,41.6373 33.0745,41.6753 32.7925,41.7023 C32.7545,41.7053 32.7155,41.7083 32.6765,41.7113 C32.3915,41.7353 32.1045,41.7503 31.8165,41.7503 C31.6065,41.7503 31.3975,41.7423 31.1895,41.7303 C31.1345,41.7263 31.0815,41.7213 31.0265,41.7173 C30.8665,41.7053 30.7075,41.6903 30.5485,41.6703 C30.4955,41.6633 30.4435,41.6563 30.3915,41.6493 C30.2175,41.6243 30.0435,41.5963 29.8715,41.5633 C29.8415,41.5573 29.8115,41.5523 29.7815,41.5473 C29.1395,41.4173 28.5105,41.2273 27.9025,40.9783 C27.8895,40.9733 27.8765,40.9673 27.8635,40.9623 C27.4545,40.7933 27.0545,40.5983 26.6665,40.3763 C26.8715,40.1413 27.1145,39.9403 27.3795,39.7853 L30.7835,37.9683 C31.1695,37.7623 31.4095,37.3843 31.4095,36.9813 L31.4095,35.7483 L31.0675,35.6243 C29.6955,35.1273 28.7565,34.0413 28.2745,32.3983 L28.1985,32.1403 L27.9115,32.0573 C27.3655,31.9013 26.9835,31.4313 26.9835,30.9143 L26.9835,30.0723 C26.9835,29.6433 27.2445,29.2663 27.6655,29.0863 L27.9435,28.9683 L27.9745,28.6983 C28.0675,27.8943 28.2655,27.1633 28.5625,26.5263 C28.6835,26.2663 28.7865,26.0733 28.8705,25.9163 C29.2275,25.2463 29.2875,25.0183 29.0825,24.0043 C29.1515,24.0603 29.2235,24.1163 29.2985,24.1733 C30.2835,24.9193 31.4985,25.3403 32.8095,25.3903 C32.9365,25.3953 33.0655,25.4053 33.1955,25.4213 C36.0495,25.7533 37.4375,26.9513 37.6955,29.3053 L37.7195,29.5283 L37.9275,29.6573 C38.2195,29.8373 38.4015,30.1733 38.4015,30.5323 L38.4015,31.2323 C38.4015,31.6353 38.1655,31.9933 37.8275,32.1033 L37.5455,32.1953 L37.4795,32.4543 C37.1135,33.9073 36.3845,34.8803 35.2525,35.4303 L34.9665,35.5693 L34.9665,36.7093 C34.9665,37.1063 35.1975,37.4583 35.5685,37.6273 L38.1665,38.8103 L38.1705,38.8123 C38.3555,38.8943 38.5185,39.0193 38.6535,39.1813 C37.2205,40.4163 35.5165,41.2353 33.7085,41.5733 C33.6845,41.5773 33.6585,41.5823 33.6335,41.5873 M21.0715,30.5563 C21.0715,24.3833 25.8925,19.3623 31.8165,19.3623 C37.7415,19.3623 42.5615,24.3833 42.5615,30.5563 C42.5615,33.6423 41.3565,36.4403 39.4115,38.4673 C39.1985,38.2493 38.9515,38.0693 38.6695,37.9433 L36.0865,36.7693 C36.0825,36.7653 36.0705,36.7443 36.0705,36.7083 L36.0705,36.1333 C37.2565,35.4633 38.0705,34.3773 38.4945,32.8973 C39.1095,32.5793 39.5045,31.9423 39.5045,31.2313 L39.5045,30.5313 C39.5045,29.9443 39.2265,29.3793 38.7675,29.0063 C38.3965,26.3263 36.6195,24.8373 33.3405,24.4553 C33.1775,24.4363 33.0165,24.4233 32.8585,24.4173 C32.1175,24.3893 31.0235,24.1953 30.0165,23.4333 C29.6225,23.1363 29.3195,22.8493 29.1165,22.5833 C28.9205,22.3273 28.5625,22.2183 28.2485,22.3203 C27.9405,22.4203 27.7575,22.6853 27.7935,22.9823 C27.8365,23.3303 27.8945,23.6823 27.9675,24.0273 C28.1625,24.9583 28.1465,24.9883 27.8735,25.5003 C27.7835,25.6683 27.6745,25.8753 27.5435,26.1543 C27.2375,26.8113 27.0255,27.5473 26.9105,28.3483 C26.2695,28.7253 25.8815,29.3623 25.8815,30.0723 L25.8815,30.9143 C25.8815,31.7543 26.4445,32.5263 27.2815,32.8803 C27.8345,34.5753 28.8505,35.7533 30.3065,36.3883 L30.3065,36.9813 C30.3065,37.0423 30.2685,37.1053 30.2135,37.1353 L26.7915,38.9613 C26.4025,39.1883 26.0615,39.4783 25.7765,39.8093 C22.9395,37.7923 21.0715,34.3973 21.0715,30.5563 M31.8165,18.3883 C25.2845,18.3883 19.9695,23.8473 19.9695,30.5563 C19.9695,34.7503 22.0475,38.4563 25.2005,40.6453 L25.1955,40.6533 L25.5895,40.9043 C25.6025,40.9123 25.6155,40.9193 25.6285,40.9273 C25.8335,41.0573 26.0435,41.1803 26.2565,41.2973 C26.3035,41.3233 26.3515,41.3473 26.3995,41.3723 C26.5815,41.4693 26.7675,41.5613 26.9555,41.6483 C27.0015,41.6703 27.0465,41.6923 27.0925,41.7133 C27.3235,41.8163 27.5575,41.9143 27.7955,42.0023 C27.8025,42.0053 27.8095,42.0073 27.8165,42.0093 C28.0445,42.0943 28.2765,42.1693 28.5105,42.2393 C28.5555,42.2533 28.6015,42.2663 28.6465,42.2793 C28.8795,42.3453 29.1145,42.4063 29.3535,42.4583 C29.3605,42.4603 29.3685,42.4623 29.3765,42.4643 C29.6245,42.5173 29.8755,42.5623 30.1295,42.5993 C30.1785,42.6063 30.2275,42.6123 30.2765,42.6183 C30.4755,42.6453 30.6755,42.6663 30.8775,42.6833 C30.9425,42.6883 31.0065,42.6943 31.0715,42.6983 C31.3185,42.7133 31.5665,42.7233 31.8165,42.7233 C32.1625,42.7233 32.5035,42.7053 32.8425,42.6753 C32.8755,42.6723 32.9085,42.6703 32.9405,42.6673 C33.2725,42.6353 33.5995,42.5873 33.9235,42.5273 C33.9585,42.5213 33.9935,42.5143 34.0285,42.5073 C34.3545,42.4443 34.6745,42.3663 34.9905,42.2763 C35.0225,42.2673 35.0525,42.2583 35.0845,42.2493 C35.4045,42.1553 35.7195,42.0473 36.0275,41.9263 C36.0545,41.9163 36.0805,41.9053 36.1065,41.8953 C36.4205,41.7693 36.7275,41.6323 37.0275,41.4803 C37.0475,41.4703 37.0685,41.4593 37.0885,41.4483 C37.3945,41.2913 37.6945,41.1233 37.9855,40.9403 C37.9975,40.9333 38.0085,40.9253 38.0205,40.9173 C38.3175,40.7283 38.6075,40.5273 38.8875,40.3133 C38.8905,40.3113 38.8945,40.3083 38.8975,40.3063 C39.1775,40.0913 39.4465,39.8623 39.7065,39.6243 C39.7175,39.6133 39.7305,39.6043 39.7425,39.5933 L40.0015,39.3543 L39.9965,39.3463 C42.2535,37.1293 43.6635,34.0093 43.6635,30.5563 C43.6635,23.8473 38.3495,18.3883 31.8165,18.3883" id="Fill-7" fill="#FFFFFF"></path>
            </g>
        </g>
    </g>
</svg>

<svg width="46" height="45" viewBox="0 0 46 45" xmlns="http://www.w3.org/2000/svg"><title>Page 1</title><g fill="none" fill-rule="evenodd"><path d="M45.074 30.508c0 7.483-5.95 13.55-13.287 13.55-7.338 0-13.287-6.067-13.287-13.55 0-7.483 5.949-13.549 13.287-13.549 7.338 0 13.287 6.066 13.287 13.55" fill="#1E1348"/><path d="M45.074 30.508c0 7.483-5.95 13.55-13.287 13.55-7.338 0-13.287-6.067-13.287-13.55 0-7.483 5.949-13.549 13.287-13.549 7.338 0 13.287 6.066 13.287 13.55z" stroke="#1E1348"/><path d="M1.421 21.318h16.76a15.525 15.525 0 0 1 1.716-2.17V18.12c0-.588-.635-1.065-1.421-1.065H1.421C.636 17.055 0 17.532 0 18.12v2.132c0 .588.636 1.066 1.421 1.066m0 5.685h14.484c.278-1.51.775-2.94 1.455-4.264H1.421C.636 22.74 0 23.216 0 23.805v2.132c0 .59.636 1.066 1.421 1.066m0-11.37h17.055c.785 0 1.421-.477 1.421-1.066v-2.132c0-.588-.636-1.066-1.421-1.066H1.421C.636 11.37 0 11.847 0 12.435v2.132c0 .59.636 1.066 1.421 1.066m21.318 0h2.054a15.484 15.484 0 0 1 6.474-1.42c2.309 0 4.499.515 6.473 1.42h2.054c.786 0 1.421-.477 1.421-1.066v-2.132c0-.588-.635-1.066-1.421-1.066H22.739c-.785 0-1.421.478-1.421 1.066v2.132c0 .59.636 1.066 1.421 1.066M1.421 32.688h14.484a15.498 15.498 0 0 1-.271-2.843c0-.48.027-.952.072-1.42H1.421C.636 28.424 0 28.9 0 29.49v2.131c0 .59.636 1.067 1.421 1.067m17.055 7.106H1.421C.636 39.794 0 40.271 0 40.86v2.132c0 .59.636 1.066 1.421 1.066h17.055c.785 0 1.421-.477 1.421-1.066V40.86c0-.588-.636-1.065-1.421-1.065m-17.055-1.42h16.76a15.634 15.634 0 0 1-1.943-4.265H1.421C.636 34.11 0 34.586 0 35.175v2.131c0 .59.636 1.067 1.421 1.067M22.739 9.948h17.055c.786 0 1.421-.477 1.421-1.066v-2.13c0-.59-.635-1.068-1.421-1.068H22.739c-.785 0-1.421.478-1.421 1.067v2.131c0 .59.636 1.066 1.421 1.066m0-5.685h17.055c.786 0 1.421-.477 1.421-1.066V1.065C41.215.477 40.58 0 39.794 0H22.739c-.785 0-1.421.477-1.421 1.065v2.132c0 .59.636 1.066 1.421 1.066" fill="#1E1348"/><path d="M33.633 41.587c-.278.05-.559.088-.84.115l-.117.01a10.25 10.25 0 0 1-.86.038c-.21 0-.418-.008-.627-.02l-.163-.013a9.543 9.543 0 0 1-1.154-.154l-.09-.016a10.44 10.44 0 0 1-1.88-.569l-.039-.016a10.428 10.428 0 0 1-1.197-.586 2.88 2.88 0 0 1 .713-.59l3.404-1.818c.386-.206.627-.584.627-.987v-1.233l-.343-.124c-1.372-.497-2.31-1.583-2.793-3.226l-.076-.258-.287-.083c-.546-.156-.928-.626-.928-1.143v-.842c0-.429.261-.806.683-.986l.277-.118.031-.27a7.052 7.052 0 0 1 .588-2.172c.121-.26.224-.453.308-.61.357-.67.418-.898.212-1.912l.216.17c.986.745 2.2 1.166 3.512 1.216.127.005.255.015.386.031 2.854.332 4.242 1.53 4.5 3.884l.023.223.209.13c.291.18.474.515.474.874v.7c0 .403-.236.761-.575.871l-.282.092-.066.26c-.365 1.452-1.094 2.425-2.227 2.975l-.285.14v1.14c0 .396.23.748.602.917l2.597 1.183.005.002c.184.082.348.207.483.37a10.542 10.542 0 0 1-5.02 2.405M21.07 30.557c0-6.174 4.821-11.195 10.745-11.195 5.926 0 10.746 5.021 10.746 11.194 0 3.086-1.206 5.884-3.15 7.911a2.414 2.414 0 0 0-.742-.524l-2.584-1.174a.11.11 0 0 1-.015-.06v-.576c1.186-.67 2-1.756 2.424-3.236a1.87 1.87 0 0 0 1.01-1.666v-.7c0-.587-.279-1.152-.738-1.525-.37-2.68-2.148-4.169-5.427-4.55a6.202 6.202 0 0 0-.482-.039c-.74-.028-1.834-.222-2.841-.984-.395-.297-.697-.584-.9-.85a.798.798 0 0 0-.869-.263c-.308.1-.49.365-.454.662.043.348.1.7.174 1.045.195.931.178.961-.095 1.473-.09.168-.199.375-.33.654a7.815 7.815 0 0 0-.633 2.194c-.64.377-1.029 1.014-1.029 1.724v.842c0 .84.564 1.612 1.4 1.966.553 1.695 1.57 2.873 3.026 3.508v.593a.183.183 0 0 1-.093.154l-3.422 1.826c-.39.227-.73.517-1.016.848-2.837-2.017-4.704-5.412-4.704-9.253m10.745-12.168c-6.532 0-11.848 5.46-11.848 12.168 0 4.194 2.078 7.9 5.232 10.09l-.006.007.395.251.038.023c.206.13.416.253.628.37.047.026.096.05.143.075.182.097.368.19.556.276l.138.065a11.65 11.65 0 0 0 .724.296c.227.085.46.16.694.23.044.014.09.027.136.04.233.066.468.127.707.18l.023.005c.248.053.498.098.753.135l.146.02c.2.026.4.047.602.064.064.005.128.011.194.015.247.015.495.025.745.025.346 0 .687-.018 1.026-.048l.097-.008c.333-.032.66-.08.983-.14l.105-.02c.327-.063.647-.14.962-.23l.094-.028c.32-.094.635-.202.944-.323l.078-.03a11.553 11.553 0 0 0 1.88-.956l.035-.023c.297-.189.587-.39.867-.604l.01-.007c.28-.215.548-.444.808-.682l.036-.03.26-.24-.006-.008a12.291 12.291 0 0 0 3.667-8.79c0-6.709-5.313-12.168-11.846-12.168" fill="#FFF"/></g></svg>
